svg/Filled/signature_filled.svg

<svg viewBox="0 0 24 24" xmlns="http://www.w3.org/2000/svg" width="24" height="24"><path fill-rule="evenodd" d="M13.48 9.06c.7-.24 1.46-.18 2.16.22q.91.51 1.3 1.43c.25.59.27 1.2.18 1.77a8 8 0 0 1-1.5 3.17q-.59.81-1.27 1.58a5 5 0 0 0 2.6-1.52l.18-.2.17-.2.22-.22c.09-.07.24-.2.46-.29a1.34 1.34 0 0 1 1.54.4c.16.19.28.42.36.6a4 4 0 0 0 .75-1.48 1.2 1.2 0 1 1 2.32.62c-.2.77-.78 2-1.54 2.76-.36.36-1.03.9-1.92.77a2 2 0 0 1-1.21-.7 8.3 8.3 0 0 1-4.04 1.96q-1.21.27-2.24-.15-.48.44-.84.71a1.2 1.2 0 0 1-1.49-1.88q.3-.23.7-.58a7 7 0 0 1-.16-3.9 9 9 0 0 1 1.68-3.7c.4-.5.94-.94 1.6-1.17m.97 2.3q-.13-.07-.2-.03c-.1.04-.28.15-.53.44a6.4 6.4 0 0 0-1.16 2.65q-.16.76-.15 1.38.68-.75 1.25-1.54.95-1.34 1.09-2.17a1 1 0 0 0-.02-.46c-.02-.05-.08-.15-.28-.27" clip-rule="evenodd"/><path d="M7.84 11.93a1.2 1.2 0 0 1 0 2.4H5.27a1.2 1.2 0 0 1 0-2.4zm1.27-4a1.2 1.2 0 0 1 0 2.4H5.27a1.2 1.2 0 0 1 0-2.4zm7.4-4a1.2 1.2 0 0 1 0 2.4H5.26a1.2 1.2 0 0 1 0-2.4h11.22"/></svg>

<svg viewBox="0 0 24 24" xmlns="http://www.w3.org/2000/svg" width="24" height="24"><path fill-rule="evenodd" d="M13.48 9.06C14.18 8.82 14.94 8.88 15.64 9.28Q16.55 9.79 16.94 10.71C17.19 11.3 17.21 11.91 17.12 12.48A8 8 0 0 1 15.62 15.65Q15.03 16.46 14.35 17.23A5 5 0 0 0 16.95 15.71L17.52 15.09C17.61 15.02 17.76 14.89 17.98 14.8A1.34 1.34 0 0 1 19.52 15.2C19.68 15.39 19.8 15.62 19.88 15.8A4 4 0 0 0 20.63 14.32A1.2 1.2 0 1 1 22.95 14.94C22.75 15.71 22.17 16.94 21.41 17.7C21.05 18.06 20.38 18.6 19.49 18.47A2 2 0 0 1 18.28 17.77A8.3 8.3 0 0 1 14.24 19.73Q13.03 20 12 19.58Q11.52 20.02 11.16 20.29A1.2 1.2 0 0 1 9.67 18.41Q9.97 18.18 10.37 17.83A7 7 0 0 1 10.21 13.93A9 9 0 0 1 11.89 10.23C12.29 9.73 12.83 9.29 13.49 9.06M14.46 11.36q-.13-.07-.2-.03c-.1.04-.28.15-.53.44a6.4 6.4 0 0 0-1.16 2.65q-.16.76-.15 1.38.68-.75 1.25-1.54.95-1.34 1.09-2.17a1 1 0 0 0-.02-.46c-.02-.05-.08-.15-.28-.27" clip-rule="evenodd"/><path d="M7.84 11.93a1.2 1.2 0 0 1 0 2.4H5.27a1.2 1.2 0 0 1 0-2.4zm1.27-4a1.2 1.2 0 0 1 0 2.4H5.27a1.2 1.2 0 0 1 0-2.4zm7.4-4a1.2 1.2 0 0 1 0 2.4H5.26a1.2 1.2 0 0 1 0-2.4h11.22"/></svg>
